X: 37959
T: Spanish Point
R: three-two
M: 3/2
K: Edorian
B,/D/E2D EGF2(EF/E/)DLE|z/(E/D)B,D LEz/(E/D)B,- B,(A,/B,/)D2|
A,B,DG- GA2F (G/F/)EDLE|z/(E/D)B,D LEz/(E/D)B,- B,(A,/B,/)D2|
EGAB A2GF- FDB,LG|z/(G/F)ELG z/(G/F)ED E(A,/B,/)D2|
EGAB d2cA- AFB,LG|z/(G/F)ELG z/(G/F)EA FDB,LE|
z/(E/D)B,D LEz/(E/D)TB, A,B,D>(D|B,)A,B,LD z/(D/TB,)A,B, D(A,/B,/)DLE|
z/(E/D)B,D LEz/(E/D)TB, A,B,D>(D|B,)A,B,LD z/(D/TB,)A,B, DB,/D/B,2:|

